svg/300/outlined/local_cafe-fill.svg

<svg xmlns="http://www.w3.org/2000/svg" width="48" height="48" viewBox="0 -960 960 960"><path d="M180.001-140.001v-45.384h599.998v45.384H180.001ZM316-280.771q-57.028 0-96.513-38.692-39.486-38.692-39.486-94.768v-405.768h620.767q24.279 0 41.755 17.048 17.476 17.049 17.476 41.029v133.844q0 23.981-17.476 41.029-17.476 17.048-41.755 17.048h-91.769v155.77q0 56.076-39.485 94.768-39.486 38.692-96.514 38.692H316Zm392.999-334.613h91.769q5.769 0 9.808-3.654 4.039-3.655 4.039-9.04v-133.844q0-5.385-4.039-9.039t-9.808-3.654h-91.769v159.231Z"/></svg>

<svg xmlns="http://www.w3.org/2000/svg" width="48" height="48" viewBox="0 -960 960 960"><path d="M180-140v-45.39h600V-140H180Zm136-140.77q-57.03 0-96.51-38.69Q180-358.15 180-414.23V-820h620.77q24.28 0 41.75 17.05Q860-785.9 860-761.92v133.84q0 23.98-17.48 41.03Q825.05-570 800.77-570H709v155.77q0 56.08-39.49 94.77-39.48 38.69-96.51 38.69H316Zm393-334.61h91.77q5.77 0 9.81-3.66 4.03-3.65 4.03-9.04v-133.84q0-5.39-4.03-9.04-4.04-3.65-9.81-3.65H709v159.23Z"/></svg>
